X:1
T:the Maid of Buncloudy
M:3/4
L:1/8
K:C
 EF| G2 c2d-B| c2 G2 GF| E2 C2D-B,| C4 Bc| d2 G2c-B| A2 G2 F2| E2G-EC-E|\
 D4 Bc| d2 G2c-B| AA G2 F2| E2G-EC-E| D4E-F| G2 c2d-B| c2 G2G-F| E2 C2D-B,|\
 C4||
